raw-svg/pinterest.svg

<svg fill="none" height="24" viewBox="0 0 24 24" width="24" xmlns="http://www.w3.org/2000/svg"><path d="m20 12c0 4.4194-3.5806 8-8 8-.8258 0-1.6194-.1258-2.36774-.3581.3258-.5322.81294-1.4032.99354-2.0967.0968-.3742.4968-1.9033.4968-1.9033.2613.4968 1.0226.9194 1.8322.9194 2.4129 0 4.1517-2.2194 4.1517-4.9774 0-2.64196-2.1581-4.61938-4.9323-4.61938-3.45162 0-5.2871 2.31612-5.2871 4.84198 0 1.1741.6258 2.6354 1.62258 3.1.15161.0709.23226.0387.26774-.1065.02581-.1097.16129-.6548.22258-.9065.01935-.0806.00968-.1516-.05484-.229-.32581-.4032-.59032-1.1387-.59032-1.8258 0-1.7645 1.33548-3.47096 3.61286-3.47096 1.9646 0 3.342 1.33871 3.342 3.25486 0 2.1645-1.0936 3.6645-2.5162 3.6645-.7838 0-1.3741-.6484-1.1838-1.4452.2258-.9516.6613-1.9774.6613-2.6645 0-.6129-.3291-1.1258-1.0129-1.1258-.8033 0-1.44842.829-1.44842 1.9419 0 .7097.23872 1.1871.23872 1.1871s-.79034 3.3484-.9355 3.9742c-.16129.6904-.09677 1.6646-.02903 2.2968-2.97419-1.1645-5.08387-4.0613-5.08387-7.4516 0-4.41935 3.58065-8 8-8 4.4194 0 8 3.58065 8 8z" fill="#000"/></svg>

<svg width="24" height="24" viewBox="0 0 24 24" fill="none" xmlns="http://www.w3.org/2000/svg">
<path d="M20 12C20 16.4194 16.4194 20 12 20C11.1742 20 10.3806 19.8742 9.63226 19.6419C9.95806 19.1097 10.4452 18.2387 10.6258 17.5452C10.7226 17.171 11.1226 15.6419 11.1226 15.6419C11.3839 16.1387 12.1452 16.5613 12.9548 16.5613C15.3677 16.5613 17.1065 14.3419 17.1065 11.5839C17.1065 8.94194 14.9484 6.96452 12.1742 6.96452C8.72258 6.96452 6.8871 9.28064 6.8871 11.8065C6.8871 12.9806 7.5129 14.4419 8.50968 14.9065C8.66129 14.9774 8.74194 14.9452 8.77742 14.8C8.80323 14.6903 8.93871 14.1452 9 13.8935C9.01935 13.8129 9.00968 13.7419 8.94516 13.6645C8.61935 13.2613 8.35484 12.5258 8.35484 11.8387C8.35484 10.0742 9.69032 8.36774 11.9677 8.36774C13.9323 8.36774 15.3097 9.70645 15.3097 11.6226C15.3097 13.7871 14.2161 15.2871 12.7935 15.2871C12.0097 15.2871 11.4194 14.6387 11.6097 13.8419C11.8355 12.8903 12.271 11.8645 12.271 11.1774C12.271 10.5645 11.9419 10.0516 11.2581 10.0516C10.4548 10.0516 9.80968 10.8806 9.80968 11.9935C9.80968 12.7032 10.0484 13.1806 10.0484 13.1806C10.0484 13.1806 9.25806 16.529 9.1129 17.1548C8.95161 17.8452 9.01613 18.8194 9.08387 19.4516C6.10968 18.2871 4 15.3903 4 12C4 7.58065 7.58065 4 12 4C16.4194 4 20 7.58065 20 12Z" fill="black"/>
</svg>
